!!!COM: Martinů, Bohuslav (Jan)
!!!OTL: [T508_Mau-w54p1m1-8]
**kern	**dynam	**kern	**dynam	**kern	**dynam
*grp:A	*grp:A	*grp:A	*grp:A	*grp:B	*grp:B
*part3	*part3	*part2	*part2	*part1	*part1
*staff3	*	*staff2	*	*staff1	*
*I"Bassoon	*	*I"Clarinet in C	*	*I"Oboe	*
*I'Bsn.	*	*I'Cl.	*	*I'Ob.	*
*clefF4	*	*clefG2	*	*clefG2	*
*k[]	*	*k[]	*	*k[]	*
*C:	*	*C:	*	*C:	*
*M3/8	*	*M3/8	*	*M3/8	*
=1	=1	=1	=1	=1	=1
!!LO:TX:a:B:t=Allegro moderato
!	!	!	!	!LO:TX:t=P:problem:cross-bar beaming	!
8r	.	8%3r	.	16ryy	4ryy
.	.	.	.	16ryy	.
8BB-X'>L/	p	.	.	8ryy	.
8F'>J	.	.	.	16ryy	4ryy
.	.	.	.	16ryy	4ryy
=2	=2	=2	=2	=2	=2
!LO:TX:t=P:problem:cross-bar beaming	!	!	!	!	!
(16F#XLL	<	8%3r	.	16ryy	4ryy
16GJ)	.	.	.	16ryy	.
8A-XJ	[	.	.	8ryy	4ryy
(16EnLL	.	.	.	24ryy	.
.	.	.	.	24ryy	.
16G#XJ	.	.	.	.	.
.	.	.	.	24ryy	.
=3	=3	=3	=3	=3	=3
!	!	!LO:TX:t=P:problem:cross-bar beaming	!	!	!
16GL	<	(16d-XLL/	p	8ryy	.
16AJ	.	16fJ	.	.	.
16B-XL	.	16a-XL	.	16ryy	.
16cJ	.	16b-XJ	.	16ryy	4ryy
8c#X'J)	[	16cc#XL	<	16ryy	.
.	.	16eeJ	.	16ryy	4ryy
=4	=4	=4	=4	=4	=4
!	!LO:DY:t=poco %s	!	!	!	!
(16dLL	mf	8ff'J)/	[	8ryy	4ryy
16BnJ	.	.	.	.	.
!	!	!	!LO:DY:t=poco %s	!	!
16c#XL	.	(16ffLL	mf	16ryy	.
!	!	!	!	!	!LO:HP:a
16G#XJJ	<	16ddJ	.	16ryy	4ryy
16dLL	.	8ff'J)	.	16ryy	.
16BJ	[[	.	.	16ryy	4ryy
!!linebreak:original
=5	=5	=5	=5	=5	=5
8c#X'J)	.	(16ffLL	.	16ryy	.
.	.	16ccJ	.	16ryy	.
(16dLL	.	16ffL	.	8ryy	4ryy
16B	.	16ccJ	<	.	.
16c#X	.	8ff'J)	.	16ryy	.
16G#XJJ	<	.	[[	16ryy	4ryy
=6	=6	=6	=6	=6	=6
16dLL	.	(16ffLL	.	8ryy	4ryy
16B-XJ	[	16ddJ	.	.	.
8cn'J)	.	8ff'J)	.	16ryy	.
.	.	.	.	16ryy	4ryy
.	.	.	.	8ryy	4ryy
(16dLL	mf	(16ee-XLL/	mf	8ryy	.
16GJJ	.	16b-XJ	.	.	.
=7	=7	=7	=7	=7	=7
16DLL	.	16ddL	.	8ryy	.
16GGJJ	.	16bnJ	.	.	.
[>4EE-X)	.	16cc#XL	.	8ryy	4ryy
.	.	16g#XJJ)	.	.	.
.	.	.	.	8ryy	4ryy
.	.	(16ee-XLL/	.	8ryy	.
.	.	16b-XJ	.	.	.
=8	=8	=8	=8	=8	=8
16EE-LL]	.	16ddL	.	8ryy	.
(16DJ	<	16bnJ	.	.	.
16B-XL)	[	16cc#XL	<	8ryy	4ryy
16D'J	>	16g#XJ	.	.	.
.	.	.	.	8ryy	4ryy
[>8EE-XJ	]	8ccn'J)/	[	8ryy	.
=	=	=	=	=	=
*-	*-	*-	*-	*-	*-
!!!system-decoration: [(s1,s2,s3)]
!!!RDF**kern: > = above
!!!RDF**kern: < = below
!!!EED: Rafael Laurindo
!!!EED2: Jason Lee
!!!EEV2: 2022/02/08
